X: 14803
T: Ganivelle
R: reel
M: 4/4
K: Gmajor
|:GA|B3 d A2 GA|B2 G2 G2 AB|cBcd edcB|A3 B A2 GA|
B3 d A2 GA|B2 G2 G2 AB|cBcd edcB|A6:|
|:d2|e3 d c2 Bc|d2 G2 G2 cd|e3 d c2 Bc|d3 e d2 cd|
e3 d c2 Bc|d2 G2 G2 AB|cBcd edcB|A6:|

